!!!COM: 亀田誠治
!!!OTL: 明日も
**kern	**kern	**text	**kern	**text	**kern	**text	**kern	**text
*part5	*part4	*part4	*part3	*part3	*part2	*part2	*part1	*part1
*staff5	*staff4	*staff4	*staff3	*staff3	*staff2	*staff2	*staff1	*staff1
*I"ピアノ	*I"ピアノ	*	*I"ピアノ	*	*I"ピアノ	*	*I"ピアノ	*
*I'Pno.	*I'Pno.	*	*I'Pno.	*	*I'Pno.	*	*I'Pno.	*
*clefF4	*clefG2	*	*clefG2	*	*clefG2	*	*clefG2	*
*k[f#c#g#]	*k[f#c#g#]	*	*k[f#c#g#]	*	*k[f#c#g#]	*	*k[f#c#g#]	*
*M4/4	*M4/4	*	*M4/4	*	*M4/4	*	*M4/4	*
*met(c)	*met(c)	*	*met(c)	*	*met(c)	*	*met(c)	*
=1	=1	=1	=1	=1	=1	=1	=1	=1
1r	1r	.	1r	.	1r	.	4r	.
.	.	.	.	.	.	.	4e	To
.	.	.	.	.	.	.	4b	mo
.	.	.	.	.	.	.	4g#	rrow
=2	=2	=2	=2	=2	=2	=2	=2	=2
1AA	1A	fu	1c#	fu	1e	fu	4.g#	never
.	.	.	.	.	.	.	8a	.
.	.	.	.	.	.	.	2a	knows
=3	=3	=3	=3	=3	=3	=3	=3	=3
1D	1d	uh	1f#	uh	1a	uh	4a	ず
.	.	.	.	.	.	.	8f#L	っ
.	.	.	.	.	.	.	8eJ	と
.	.	.	.	.	.	.	4a	ず
.	.	.	.	.	.	.	8f#L	っ
.	.	.	.	.	.	.	8eJ	と
=4	=4	=4	=4	=4	=4	=4	=4	=4
1C#	1A	uh	1c#	uh	1e	uh	4.g#	never
.	.	.	.	.	.	.	8a	give
.	.	.	.	.	.	.	[4a	.
.	.	.	.	.	.	.	8aL]	.
.	.	.	.	.	.	.	[8bJ	up
=5	=5	=5	=5	=5	=5	=5	=5	=5
4F#	1B	uh	1e	uh	1g#	uh	4b]	.
4F#	.	.	.	.	.	.	4a	on
4E	.	.	.	.	.	.	4g#	my
4F#	.	.	.	.	.	.	4a	dream
=6	=6	=6	=6	=6	=6	=6	=6	=6
1BB	1d	uh	1f#	uh	1a	uh	[2f#	.
.	.	.	.	.	.	.	4f#]	.
.	.	.	.	.	.	.	8f#L	い
.	.	.	.	.	.	.	[8cc#J	ま
=7	=7	=7	=7	=7	=7	=7	=7	=7
[1E	[1e	ha-	[1a	ha-	[1b	ha-	8cc#]	.
.	.	.	.	.	.	.	4a	は
.	.	.	.	.	.	.	4f#	じ
.	.	.	.	.	.	.	4a	け
.	.	.	.	.	.	.	[8a	よ
=8	=8	=8	=8	=8	=8	=8	=8	=8
1E]	1e_	.	1a]	.	1b_	.	1a_	う
=9	=9	=9	=9	=9	=9	=9	=9	=9
*MM155	*MM155	*	*MM155	*	*MM155	*	*MM155	*
4r	1e]	.	8aL	tu	1b]	.	1a]	.
.	.	.	8e	lu	.	.	.	.
8EL	.	.	8B	lu	.	.	.	.
8EJ	.	.	8aJ	lu	.	.	.	.
8r	.	.	8eL	lu	.	.	.	.
8EL	.	.	8B	lu	.	.	.	.
8EJ	.	.	8e	lu	.	.	.	.
8r	.	.	8BJ	lu	.	.	.	.
=10	=10	=10	=10	=10	=10	=10	=10	=10
4AA	8eL	-da	8aL	-da	8ddL	-da	1r	.
.	8e	la	8a	la	8dd	la	.	.
4AA	8e	la	8a	la	8dd	la	.	.
.	8eJ	la	8aJ	la	8cc#J	la	.	.
4AA	4r	.	4r	.	4r	.	.	.
4AA	8eL	ta	8g#L	ta	8bL	ta	.	.
.	8eJ	la	8g#J	la	8bJ	la	.	.
=11	=11	=11	=11	=11	=11	=11	=11	=11
4D	8dL	la	8f#L	la	8bL	la	1r	.
.	8dJ	la	8f#J	la	8aJ	la	.	.
4D	4r	.	4r	.	4r	.	.	.
4D	8dL	ta	8f#L	ta	8aL	ta	.	.
.	8dJ	la	8f#J	la	8g#J	la	.	.
4D	4d	la	4f#	la	4a	la	.	.
=12	=12	=12	=12	=12	=12	=12	=12	=12
4C#	[2c#	uh	2g#	uh	2e	uh	1r	.
4C#	.	.	.	.	.	.	.	.
4C#	4c#]	uh	[4e	uh	[4g#	uh	.	.
8C#L	8r	.	8eL]	.	8g#L]	.	.	.
[8DJ	[8d	.	[8f#J	.	[8aJ	.	.	.
=13	=13	=13	=13	=13	=13	=13	=13	=13
8DL]	1d]	.	1f#]	.	1a]	.	1r	.
8D	.	.	.	.	.	.	.	.
8E	.	.	.	.	.	.	.	.
8EJ	.	.	.	.	.	.	.	.
8F#L	.	.	.	.	.	.	.	.
8F#	.	.	.	.	.	.	.	.
8G#	.	.	.	.	.	.	.	.
8G#J	.	.	.	.	.	.	.	.
=14	=14	=14	=14	=14	=14	=14	=14	=14
4AA	8eL	-da	8aL	-da	8ddL	-da	1r	.
.	8e	la	8a	la	8dd	la	.	.
4AA	8e	la	8a	la	8dd	la	.	.
.	8eJ	la	8aJ	la	8cc#J	la	.	.
4AA	4r	.	4r	.	4r	.	.	.
4AA	8eL	ta	8g#L	ta	8bL	ta	.	.
.	8eJ	la	8g#J	la	8bJ	la	.	.
=15	=15	=15	=15	=15	=15	=15	=15	=15
4D	8dL	la	8f#L	la	8bL	la	1r	.
.	8dJ	la	8f#J	la	8aJ	la	.	.
4D	4r	.	4r	.	4r	.	.	.
4D	8dL	ta	8f#L	ta	8aL	ta	.	.
.	8dJ	la	8f#J	la	8g#J	la	.	.
4D	4d	la	4f#	la	4a	la	.	.
=16	=16	=16	=16	=16	=16	=16	=16	=16
4C#	2c#	uh	2g#	uh	2e	uh	1r	.
4C#	.	.	.	.	.	.	.	.
4C#	[4c#	uh	[4e	uh	8g#L	tu	.	.
.	.	.	.	.	8a	ru	.	.
8C#L	8c#L]	.	8eL]	.	8b	ru	.	.
[8EEJ	[8eJ	la	[8aJ	la	[8eeJ	ru-	.	.
=17	=17	=17	=17	=17	=17	=17	=17	=17
4EE]	8eL]	.	8aL]	.	1ee]	.	4r	.
.	8e	ta	8a	ta	.	.	.	.
8EEL	8e	ta	8a	ta	.	.	4r	.
[8EJ	[8eJ	ta	[8g#J	ta	.	.	.	.
4E]	2e]	ta	2g#]	ta	.	.	8r	.
.	.	.	.	.	.	.	8c#L	10
4E	.	.	.	.	.	.	8e	.
.	.	.	.	.	.	.	8aJ	年
=18	=18	=18	=18	=18	=18	=18	=18	=18
4D	1r	.	1r	.	1r	.	4g#	.
4D	.	.	.	.	.	.	8f#L	後
.	.	.	.	.	.	.	[8eJ	の
4D	.	.	.	.	.	.	8eL]	.
.	.	.	.	.	.	.	[8d	未
4D	.	.	.	.	.	.	8d]	.
.	.	.	.	.	.	.	[8eJ	来
=19	=19	=19	=19	=19	=19	=19	=19	=19
4AA	1r	.	1r	.	1r	.	8e]	.
.	.	.	.	.	.	.	[4A	の
4AA	.	.	.	.	.	.	.	.
.	.	.	.	.	.	.	8A]	.
4AA	.	.	.	.	.	.	8r	.
.	.	.	.	.	.	.	8AL	こ
4AA	.	.	.	.	.	.	8c#	と
.	.	.	.	.	.	.	8f#J	な
=20	=20	=20	=20	=20	=20	=20	=20	=20
4BB	1r	.	1r	.	1r	.	4e	ん
4BB	.	.	.	.	.	.	8dL	て
.	.	.	.	.	.	.	[8c#J	わ
4C#	.	.	.	.	.	.	8c#L]	.
.	.	.	.	.	.	.	[8B	か
4C#	.	.	.	.	.	.	8B]	ん
.	.	.	.	.	.	.	[8dJ	な
=21	=21	=21	=21	=21	=21	=21	=21	=21
4F#	1r	.	1r	.	1r	.	8dL]	い
.	.	.	.	.	.	.	[8c#J	よ
4F#	.	.	.	.	.	.	4c#]	.
4E	.	.	.	.	.	.	8r	.
.	.	.	.	.	.	.	8AL	ね
4E	.	.	.	.	.	.	8c#	ぇ
.	.	.	.	.	.	.	8aJ	む
=22	=22	=22	=22	=22	=22	=22	=22	=22
4D	1r	.	1r	.	1r	.	4g#	ず
4D	.	.	.	.	.	.	8f#L	か
.	.	.	.	.	.	.	[8eJ	し
4D	.	.	.	.	.	.	8eL]	.
.	.	.	.	.	.	.	[8d	く
4D	.	.	.	.	.	.	8d]	.
.	.	.	.	.	.	.	[8eJ	.
=23	=23	=23	=23	=23	=23	=23	=23	=23
4C#	1r	.	1r	.	1r	.	8eL]	考え
.	.	.	.	.	.	.	[8a	.
4C#	.	.	.	.	.	.	8a]	.
.	.	.	.	.	.	.	[8AJ	す
4C#	.	.	.	.	.	.	8AL]	.
.	.	.	.	.	.	.	8B	ぎ
4C#	.	.	.	.	.	.	8c#	て
.	.	.	.	.	.	.	8c#J	な
=24	=24	=24	=24	=24	=24	=24	=24	=24
4BB	4r	.	4r	.	4r	.	[1B	い
4BB	[2d	ha-	[2e	ha-	[2a	-ha-	.	.
8r	.	.	.	.	.	.	.	.
8BB	.	.	.	.	.	.	.	.
8r	4d]	.	4e]	.	4a]	.	.	.
8BB	.	.	.	.	.	.	.	.
=25	=25	=25	=25	=25	=25	=25	=25	=25
[8.EL	[8.eL	-da	[8.aL	-da	[8.bL	da	2B]	.
16EJk]	16eJk]	.	16aJk]	.	16bJk]	.	.	.
8r	8r	.	8r	.	8r	.	.	.
4E	[8e	ta-	[8g#	ta-	[8b	ta-	.	.
.	2e]	.	2g#]	.	2b]	.	8r	.
8E	.	.	.	.	.	.	8AL	で
4E	.	.	.	.	.	.	8e	も
.	.	.	.	.	.	.	8aJ	ね
=26	=26	=26	=26	=26	=26	=26	=26	=26
8DL	4r	.	4r	.	4r	.	4g#	明日
8DJ	.	.	.	.	.	.	.	.
8r	4d	tu	4f#	tu	4a	tu	8f#L	.
4D	.	.	.	.	.	.	[8eJ	の
.	8r	.	8r	.	8r	.	8eL]	.
8D	[8d	tu-	[8f#	tu-	[8a	tu-	[8d	こ
8r	4d]	.	4f#]	.	4a]	.	8d]	.
8D	.	.	.	.	.	.	[8eJ	と
=27	=27	=27	=27	=27	=27	=27	=27	=27
8AAL	4r	.	4r	.	4r	.	8e]	.
8AAJ	.	.	.	.	.	.	[4A	な
8r	4c#	tu	4e	tu	4a	-tu	.	.
4AA	.	.	.	.	.	.	8A]	ら
.	8r	.	8r	.	8r	.	8r	.
8AA	[8c#	tu-	[8e	tu-	[8a	tu-	8AL	ちょっ
8r	4c#]	.	4e]	.	4a]	.	8c#	と
8AA	.	.	.	.	.	.	8f#J	イ
=28	=28	=28	=28	=28	=28	=28	=28	=28
4C#	2c#	woo	2e#X	woo	2b	woo	4e#X	メー
8C#L	.	.	.	.	.	.	8f#L	ジ
8C#J	.	.	.	.	.	.	[8g#J	で
8r	2c#	ooo	2e#	ooo	2g#	ooo	8g#L]	.
8E#X	.	.	.	.	.	.	[8c#	き
8r	.	.	.	.	.	.	8c#]	.
8E#	.	.	.	.	.	.	[8g#J	る
=29	=29	=29	=29	=29	=29	=29	=29	=29
4F#	2c#	ha	2f#	ha	2a	ha	8g#L]	.
.	.	.	.	.	.	.	8aJ	よ
4F#	.	.	.	.	.	.	[4a	ね
4E	2c#	ha	2e	ha	2a	ha	8a]	.
.	.	.	.	.	.	.	8r	.
4E	.	.	.	.	.	.	8c#L	ほ
.	.	.	.	.	.	.	[8BJ	ら
=30	=30	=30	=30	=30	=30	=30	=30	=30
4BB	4r	.	4r	.	4r	.	4B]	.
8r	4B	tu	4d	tu	4f#	tu	8c#L	す
4BB	.	.	.	.	.	.	[8dJ	こ
.	8r	.	8r	.	8r	.	8dL]	.
8BB	[8B	tu-	[8d	tu-	[8f#	tu-	[8d	し
8r	4B]	.	4d]	.	4f#]	.	8d]	.
8BB	.	.	.	.	.	.	8dJ	笑
=31	=31	=31	=31	=31	=31	=31	=31	=31
4C#	4r	.	4r	.	4r	.	4c#	顔
8r	4c#	-tu	4e	-tu	4g#	tu	4d	.
4C#	.	.	.	.	.	.	.	.
.	8r	.	8r	.	8r	.	4e	に
8C#	[8c#	tu-	[8e	tu-	[8g#	tu-	.	.
8r	4c#]	.	4e]	.	4g#]	.	4c#	な
8C#	.	.	.	.	.	.	.	.
=32	=32	=32	=32	=32	=32	=32	=32	=32
4D	4r	.	4r	.	4r	.	4.d	れ
8r	4d	-tu	4f#	-tu	4a	tu	.	.
4D	.	.	.	.	.	.	8e	る
.	8r	.	8r	.	8r	.	2f#	よ
8D	[8d	tu	[8f#	tu	[8a	tu	.	.
8r	4d]	.	4f#]	.	4a]	.	.	.
8D	.	.	.	.	.	.	.	.
=33	=33	=33	=33	=33	=33	=33	=33	=33
8AL	1d	woo	4a	woo-	4cc#	woo-	2r	.
8A	.	.	.	.	.	.	.	.
8G#	.	.	4g#	.	4b	.	.	.
8G#J	.	.	.	.	.	.	.	.
8F#L	.	.	4f#	.	4a	.	8r	.
8F#	.	.	.	.	.	.	8B	怖
8E	.	.	4e	.	4g#	.	4c#	い
8EJ	.	.	.	.	.	.	.	.
=34	=34	=34	=34	=34	=34	=34	=34	=34
4BB	1B	ha	1d	ha	1f#	ha	4B	も
4A	.	.	.	.	.	.	8c#L	の
.	.	.	.	.	.	.	[8dJ	な
4G#	.	.	.	.	.	.	8dL]	ん
.	.	.	.	.	.	.	[8d	て
4A	.	.	.	.	.	.	8d]	.
.	.	.	.	.	.	.	8dJ	な
=35	=35	=35	=35	=35	=35	=35	=35	=35
4C#	1c#	ah	1e	ah	1g#	ah	4c#	に
4A	.	.	.	.	.	.	4d	ひ
4G#	.	.	.	.	.	.	4e	と
4A	.	.	.	.	.	.	4c#	つ
=36	=36	=36	=36	=36	=36	=36	=36	=36
4D	1d	ah	1f#	ah	1a	ah	4.d	な
4c#	.	.	.	.	.	.	.	.
.	.	.	.	.	.	.	8a	い
4B	.	.	.	.	.	.	2a	よ
4A	.	.	.	.	.	.	.	.
=37	=37	=37	=37	=37	=37	=37	=37	=37
8r	8r	.	8r	.	8r	.	8r	.
8EL	8c#	ta	8e	ta	8a	ta	8aL	だ
8E	4r	.	4r	.	4r	.	8a	か
8EJ	.	.	.	.	.	.	8aJ	ら
8BBL	2r	.	2r	.	2r	.	8aL	歌
8BB	.	.	.	.	.	.	8g#	.
8E	.	.	.	.	.	.	8f#	う
8EJ	.	.	.	.	.	.	8g#J	よ
=38	=38	=38	=38	=38	=38	=38	=38	=38
1r	1r	.	1r	.	4r	.	4r	.
.	.	.	.	.	4g#	To	4e	To
.	.	.	.	.	4dd	mo	4b	mo
.	.	.	.	.	4b	rrow	4g#	rrow
=39	=39	=39	=39	=39	=39	=39	=39	=39
4AA	1c#	uh	1e	uh	4.b	never	4.g#	never
4AA	.	.	.	.	.	.	.	.
.	.	.	.	.	8cc#	.	8a	.
4AA	.	.	.	.	2cc#	knows	2a	knows
4AA	.	.	.	.	.	.	.	.
=40	=40	=40	=40	=40	=40	=40	=40	=40
4D	1d	uh	1a	uh	4cc#	ず	4a	ず
4D	.	.	.	.	8bL	っ	8f#L	っ
.	.	.	.	.	8aJ	と	8eJ	と
4D	.	.	.	.	4cc#	ず	4a	ず
4D	.	.	.	.	8bL	っ	8f#L	っ
.	.	.	.	.	8aJ	と	8eJ	と
=41	=41	=41	=41	=41	=41	=41	=41	=41
4C#	1e	uh	1g#	uh	4.b	never	4.g#	never
4C#	.	.	.	.	.	.	.	.
.	.	.	.	.	8cc#	.	8a	.
4C#	.	.	.	.	4cc#	give	4a	give
4C#	.	.	.	.	8r	.	8r	.
.	.	.	.	.	[8dd	up	[8b	up
=42	=42	=42	=42	=42	=42	=42	=42	=42
4F#	1f#	uh	1a	uh	4dd]	.	4b]	.
4A	.	.	.	.	4cc#	on	4a	on
4G#	.	.	.	.	4b	my	4g#	my
4A	.	.	.	.	4cc#	dream	4a	dream
=43	=43	=43	=43	=43	=43	=43	=43	=43
4BB	4r	.	4r	.	4r	.	8f#L	確
.	.	.	.	.	.	.	8f#	.
4BB	4d	tu	4f#	tu	4a	tu	8g#	か
.	.	.	.	.	.	.	[8aJ	な
4BB	8r	.	8r	.	8r	.	4a]	.
.	[8d	tu	[8f#	tu	[8a	tu	.	.
4BB	4d]	.	4f#]	.	4a]	.	4a	リ
=44	=44	=44	=44	=44	=44	=44	=44	=44
4C#	4r	.	4r	.	4r	.	4e	ズ
4C#	4c#	tu	4e	tu	4a	tu	8g#L	ム
.	.	.	.	.	.	.	8aJ	で
4C#	8r	.	8r	.	8r	.	8r	.
.	[8c#	tu	[8e	tu	[8a	tu	8aL	い
4C#	4c#]	.	4e]	.	4a]	.	8a	ま
.	.	.	.	.	.	.	8aJ	を
=45	=45	=45	=45	=45	=45	=45	=45	=45
4E	2e	ha	2g#	ha	2b	ha	8eL	か
.	.	.	.	.	.	.	8e	け
4E	.	.	.	.	.	.	8e	ぬ
.	.	.	.	.	.	.	8eJ	け
4E#X	2e#X	ah	2g#	ah	2b	ah	[8dL	て
.	.	.	.	.	.	.	8d]	.
4E#	.	.	.	.	.	.	8c#	い
.	.	.	.	.	.	.	8dJ	こ
=46	=46	=46	=46	=46	=46	=46	=46	=46
4F#	4f#	ah	4a	ah	4cc#	ah	4c#	う
4F#	4e	ぼ	4a	ぼ	4cc#	ぼ	4e	ぼ
4E	4e	く	4b	く	4dd	く	4b	く
4E	4e	た	4e	た	4b	た	4g#	た
=47	=47	=47	=47	=47	=47	=47	=47	=47
4AA	4.c#	ち	4.e	ち	4.b	ち	4.g#	ち
4AA	.	.	.	.	.	.	.	.
.	8c#	は	8e	は	8cc#	は	8a	は
4AA	2c#	.	2e	.	2cc#	.	2a	.
4AA	.	.	.	.	.	.	.	.
=48	=48	=48	=48	=48	=48	=48	=48	=48
4D	4c#	い	4e	い	4cc#	い	4a	い
4D	8c#L	つ	8dL	つ	8bL	つ	8f#L	つ
.	8c#J	か	8c#J	か	8aJ	か	8eJ	か
4D	4c#	い	4e	い	4cc#	い	4a	い
4D	8c#L	つ	8dL	つ	8bL	つ	8f#L	つ
.	8c#J	か	8c#J	か	8aJ	か	8eJ	か
=49	=49	=49	=49	=49	=49	=49	=49	=49
4C#	4.c#	き	4.e	き	4.b	き	4.g#	き
4C#	.	.	.	.	.	.	.	.
.	8c#	っ	8e	っ	8cc#	っ	8a	っ
4C#	4c#	と	4e	と	4cc#	と	4a	と
4C#	4r	.	4r	.	4r	.	4r	.
=50	=50	=50	=50	=50	=50	=50	=50	=50
4F#	4A	お	4f#	お	4dd	お	4b	お
4F#	4A	と	4f#	と	4cc#	と	4a	と
4E	4A	な	4e	な	4b	な	4g#	な
4F#	4A	に	4f#	に	4cc#	に	4a	に
=51	=51	=51	=51	=51	=51	=51	=51	=51
4BB	1B	ha	1d	ha	1f#	ha	4.cc#	な
4A	.	.	.	.	.	.	.	.
.	.	.	.	.	.	.	8a	っ
4G#	.	.	.	.	.	.	4.a	て
4A	.	.	.	.	.	.	.	.
.	.	.	.	.	.	.	8f#	い
=52	=52	=52	=52	=52	=52	=52	=52	=52
4C#	1c#	ah	1e	ah	1g#	ah	4e	く
4A	.	.	.	.	.	.	8aL	ん
.	.	.	.	.	.	.	[8aJ	だ
4G#	.	.	.	.	.	.	8aL]	.
.	.	.	.	.	.	.	8a	だ
4A	.	.	.	.	.	.	8g#	か
.	.	.	.	.	.	.	8g#J	ら
=53	=53	=53	=53	=53	=53	=53	=53	=53
4D	1d	ah	1f#	ah	1a	ah	2f#	.
4D	.	.	.	.	.	.	.	.
4D	.	.	.	.	.	.	4r	.
4D	.	.	.	.	.	.	8f#L	い
.	.	.	.	.	.	.	8cc#J	ま
=54	=54	=54	=54	=54	=54	=54	=54	=54
2.E	1e	ah	1a	ah	1b	ah	8cc#	.
.	.	.	.	.	.	.	4a	は
.	.	.	.	.	.	.	4f#	じ
.	.	.	.	.	.	.	4a	け
4E	.	.	.	.	.	.	.	.
.	.	.	.	.	.	.	[8a	よ
=55	=55	=55	=55	=55	=55	=55	=55	=55
4AA	8eL	-ta	8aL	-ta	8ddL	-ta	1a_	う
.	8e	la	8a	la	8dd	la	.	.
4AA	8e	la	8a	la	8dd	la	.	.
.	8eJ	la	8aJ	la	8cc#J	la	.	.
4AA	4r	.	4r	.	4r	.	.	.
4AA	8eL	ta	8g#L	ta	8bL	ta	.	.
.	8eJ	la	8g#J	la	8bJ	la	.	.
=56	=56	=56	=56	=56	=56	=56	=56	=56
4D	8dL	la	8f#L	la	8bL	la	1a]	.
.	8dJ	la	8f#J	la	8aJ	la	.	.
4D	4r	.	4r	.	4r	.	.	.
4D	8dL	ta	8f#L	ta	8aL	ta	.	.
.	8dJ	la	8f#J	la	8g#J	la	.	.
4D	4d	la	4f#	la	4a	la	.	.
=57	=57	=57	=57	=57	=57	=57	=57	=57
4C#	[2c#	uh	2g#	uh	2e	uh	1r	.
4C#	.	.	.	.	.	.	.	.
4C#	4c#]	uh	[4e	uh	[4g#	uh	.	.
8C#L	8r	.	8eL]	.	8g#L]	.	.	.
[8DJ	[8d	.	[8f#J	.	[8aJ	.	.	.
=58	=58	=58	=58	=58	=58	=58	=58	=58
8DL]	1d]	.	1f#]	.	1a]	.	1r	.
8D	.	.	.	.	.	.	.	.
8E	.	.	.	.	.	.	.	.
8EJ	.	.	.	.	.	.	.	.
8F#L	.	.	.	.	.	.	.	.
8F#	.	.	.	.	.	.	.	.
8G#	.	.	.	.	.	.	.	.
8G#J	.	.	.	.	.	.	.	.
=59	=59	=59	=59	=59	=59	=59	=59	=59
4AA	8eL	-ta	8aL	-ta	8ddL	-ta	1r	.
.	8e	la	8a	la	8dd	la	.	.
4AA	8e	la	8a	la	8dd	la	.	.
.	8eJ	la	8aJ	la	8cc#J	la	.	.
4AA	4r	.	4r	.	4r	.	.	.
4AA	8eL	ta	8g#L	ta	8bL	ta	.	.
.	8eJ	la	8g#J	la	8bJ	la	.	.
=60	=60	=60	=60	=60	=60	=60	=60	=60
4D	8dL	la	8f#L	la	8bL	la	1r	.
.	8dJ	la	8f#J	la	8aJ	la	.	.
4D	4r	.	4r	.	4r	.	.	.
4D	8dL	ta	8f#L	ta	8aL	ta	.	.
.	8dJ	la	8f#J	la	8g#J	la	.	.
4D	4d	la	4f#	la	4a	la	.	.
=61	=61	=61	=61	=61	=61	=61	=61	=61
4C#	2c#	uh	2g#	uh	2e	uh	1r	.
4C#	.	.	.	.	.	.	.	.
4C#	[4c#	uh	[4e	uh	8g#L	tu	.	.
.	.	.	.	.	8a	ru	.	.
8C#L	8c#L]	.	8eL]	.	8b	ru	.	.
[8EEJ	[8eJ	la	[8aJ	la	[8eeJ	ru-	.	.
=62	=62	=62	=62	=62	=62	=62	=62	=62
4EE]	8eL]	.	8aL]	.	1ee]	.	4r	.
.	8e	ta	8a	ta	.	.	.	.
8EEL	8e	ta	8a	ta	.	.	4r	.
[8EJ	[8eJ	ta	[8g#J	ta	.	.	.	.
4E]	2e]	ta	2g#]	ta	.	.	8r	.
.	.	.	.	.	.	.	8c#L	ひゃ
4E	.	.	.	.	.	.	8e	く
.	.	.	.	.	.	.	8aJ	ね
=63	=63	=63	=63	=63	=63	=63	=63	=63
4D	1r	.	1r	.	1r	.	4g#	ん
4D	.	.	.	.	.	.	8f#L	ご
.	.	.	.	.	.	.	[8eJ	ぼ
4D	.	.	.	.	.	.	8eL]	.
.	.	.	.	.	.	.	[8d	く
4D	.	.	.	.	.	.	8d]	.
.	.	.	.	.	.	.	[8eJ	た
=64	=64	=64	=64	=64	=64	=64	=64	=64
4AA	1r	.	1r	.	1r	.	8e]	ち
.	.	.	.	.	.	.	[4A	は
4AA	.	.	.	.	.	.	.	.
.	.	.	.	.	.	.	8A]	.
4AA	.	.	.	.	.	.	8r	.
.	.	.	.	.	.	.	8AL	ま
4AA	.	.	.	.	.	.	8c#	だ
.	.	.	.	.	.	.	8f#J	い
=65	=65	=65	=65	=65	=65	=65	=65	=65
4BB	1r	.	1r	.	1r	.	4e	き
4BB	.	.	.	.	.	.	8dL	て
.	.	.	.	.	.	.	[8c#J	る
4C#	.	.	.	.	.	.	8c#L]	.
.	.	.	.	.	.	.	[8B	か
4C#	.	.	.	.	.	.	8B]	.
.	.	.	.	.	.	.	[8c#J	な
=66	=66	=66	=66	=66	=66	=66	=66	=66
4F#	1r	.	1r	.	1r	.	8c#L_	.
.	.	.	.	.	.	.	8c#J_	.
4F#	.	.	.	.	.	.	4c#]	.
4E	.	.	.	.	.	.	8r	.
.	.	.	.	.	.	.	8AL	や
4E	.	.	.	.	.	.	8c#	さ
.	.	.	.	.	.	.	8aJ	し
=67	=67	=67	=67	=67	=67	=67	=67	=67
4D	1r	.	1r	.	1r	.	4g#	い
4D	.	.	.	.	.	.	8f#L	お
.	.	.	.	.	.	.	[8eJ	もい
4D	.	.	.	.	.	.	8eL]	.
.	.	.	.	.	.	.	[8d	で
4D	.	.	.	.	.	.	8d]	.
.	.	.	.	.	.	.	[8eJ	たく
=68	=68	=68	=68	=68	=68	=68	=68	=68
4C#	1r	.	1r	.	1r	.	8eL]	.
.	.	.	.	.	.	.	[8a	さん
4C#	.	.	.	.	.	.	8a]	.
.	.	.	.	.	.	.	[8AJ	つ
4C#	.	.	.	.	.	.	8AL]	.
.	.	.	.	.	.	.	8B	く
4C#	.	.	.	.	.	.	[8c#	ろ
.	.	.	.	.	.	.	8c#J]	.
=69	=69	=69	=69	=69	=69	=69	=69	=69
4BB	4r	.	4r	.	4r	.	[1B	う
4BB	[2d	ha-	[2e	ha-	[2a	-ha-	.	.
8r	.	.	.	.	.	.	.	.
8BB	.	.	.	.	.	.	.	.
8r	4d]	.	4e]	.	4a]	.	.	.
8BB	.	.	.	.	.	.	.	.
=70	=70	=70	=70	=70	=70	=70	=70	=70
[8.EL	[8.eL	-ta	[8.aL	-ta	[8.bL	ta	2B]	.
16EJk]	16eJk]	.	16aJk]	.	16bJk]	.	.	.
8r	8r	.	8r	.	8r	.	.	.
4E	[8e	ta-	[8g#	ta-	[8b	ta-	.	.
.	2e]	.	2g#]	.	2b]	.	8r	.
8E	.	.	.	.	.	.	8AL	も
4E	.	.	.	.	.	.	8e	し
.	.	.	.	.	.	.	8aJ	も
=71	=71	=71	=71	=71	=71	=71	=71	=71
8DL	4r	.	4r	.	4r	.	4g#	き
8DJ	.	.	.	.	.	.	.	.
8r	4d	tu	4f#	tu	4a	tu	8f#L	み
4D	.	.	.	.	.	.	[8eJ	が
.	8r	.	8r	.	8r	.	8eL]	.
8D	[8d	tu-	[8f#	tu-	[8a	tu-	[8d	い
8r	4d]	.	4f#]	.	4a]	.	8d]	ない
8D	.	.	.	.	.	.	[8eJ	と
=72	=72	=72	=72	=72	=72	=72	=72	=72
8AAL	4r	.	4r	.	4r	.	8e]	し
8AAJ	.	.	.	.	.	.	[4A	た
8r	4c#	tu	4e	tu	4a	-tu	.	.
4AA	.	.	.	.	.	.	8A]	ら
.	8r	.	8r	.	8r	.	8r	.
8AA	[8c#	tu-	[8e	tu-	[8a	tu-	8AL	ちょっ
8r	4c#]	.	4e]	.	4a]	.	8c#	と
8AA	.	.	.	.	.	.	8f#J	ダ
=73	=73	=73	=73	=73	=73	=73	=73	=73
4C#	2c#	woo	2e#X	woo	2b	woo	4e#X	メ
8C#L	.	.	.	.	.	.	8f#L	ー
8C#J	.	.	.	.	.	.	[8g#J	ジ
8r	2c#	ooo	2e#	ooo	2g#	ooo	8g#L]	おお
8E#X	.	.	.	.	.	.	[8c#	き
8r	.	.	.	.	.	.	8c#]	.
8E#	.	.	.	.	.	.	[8g#J	い
=74	=74	=74	=74	=74	=74	=74	=74	=74
4F#	2c#	ha	2f#	ha	2a	ha	8g#L]	.
.	.	.	.	.	.	.	8aJ	か
4F#	.	.	.	.	.	.	[4a	な
4E	2c#	ha	2e	ha	2a	ha	8a]	.
.	.	.	.	.	.	.	8r	.
4E	.	.	.	.	.	.	8c#L	ね
.	.	.	.	.	.	.	[8BJ	.
=75	=75	=75	=75	=75	=75	=75	=75	=75
4BB	4r	.	4r	.	4r	.	4B]	え
8r	4B	tu	4d	tu	4f#	tu	8c#L	ず
4BB	.	.	.	.	.	.	[8dJ	っ
.	8r	.	8r	.	8r	.	8dL]	.
8BB	[8B	tu-	[8d	tu-	[8f#	tu-	[8d	と
8r	4B]	.	4d]	.	4f#]	.	8d]	.
8BB	.	.	.	.	.	.	8dJ	い
=76	=76	=76	=76	=76	=76	=76	=76	=76
4C#	4r	.	4r	.	4r	.	4c#	い
8r	4c#	-tu	4e	-tu	4g#	tu	4d	っしょ
4C#	.	.	.	.	.	.	.	.
.	8r	.	8r	.	8r	.	4e	に
8C#	[8c#	tu-	[8e	tu-	[8g#	tu-	.	.
8r	4c#]	.	4e]	.	4g#]	.	4c#	い
8C#	.	.	.	.	.	.	.	.
=77	=77	=77	=77	=77	=77	=77	=77	=77
4D	4r	.	4r	.	4r	.	4.d	よ
8r	4d	-tu	4f#	-tu	4a	tu	.	.
4D	.	.	.	.	.	.	8e	う
.	8r	.	8r	.	8r	.	2f#	よ
8D	[8d	tu	[8f#	tu	[8a	tu	.	.
8r	4d]	.	4f#]	.	4a]	.	.	.
8D	.	.	.	.	.	.	.	.
=78	=78	=78	=78	=78	=78	=78	=78	=78
8AL	1d	woo	4a	woo-	4cc#	woo-	2r	.
8A	.	.	.	.	.	.	.	.
8G#	.	.	4g#	.	4b	.	.	.
8G#J	.	.	.	.	.	.	.	.
8F#L	.	.	4f#	.	4a	.	8r	.
8F#	.	.	.	.	.	.	8c#L	た
8E	.	.	4e	.	4g#	.	8c#	く
8EJ	.	.	.	.	.	.	[8c#J	さ
=79	=79	=79	=79	=79	=79	=79	=79	=79
4BB	1B	ha	1d	ha	1f#	ha	4c#]	ん
4A	.	.	.	.	.	.	8c#L	わ
.	.	.	.	.	.	.	[8dJ	ら
4G#	.	.	.	.	.	.	8dL]	.
.	.	.	.	.	.	.	[8d	って
4A	.	.	.	.	.	.	8d]	.
.	.	.	.	.	.	.	8dJ	い
=80	=80	=80	=80	=80	=80	=80	=80	=80
4C#	1c#	ah	1e	ah	1g#	ah	4c#	たい
4A	.	.	.	.	.	.	4d	よ
4G#	.	.	.	.	.	.	4e	き
4A	.	.	.	.	.	.	4c#	み
=81	=81	=81	=81	=81	=81	=81	=81	=81
4D	1d	ah	1f#	ah	1a	ah	4.d	と
4c#	.	.	.	.	.	.	.	.
.	.	.	.	.	.	.	8a	な
4B	.	.	.	.	.	.	2a	ら
4A	.	.	.	.	.	.	.	.
=82	=82	=82	=82	=82	=82	=82	=82	=82
8r	8r	.	8r	.	8r	.	8r	.
8EL	8c#	.	8e	.	8a	ta	8aL	だ
8E	4r	.	4r	.	4r	.	8a	か
8EJ	.	.	.	.	.	.	8aJ	ら
8BBL	2r	.	2r	.	2r	.	8aL	う
8BB	.	.	.	.	.	.	8g#	た
8E	.	.	.	.	.	.	8f#	う
8EJ	.	.	.	.	.	.	8g#J	よ
=83	=83	=83	=83	=83	=83	=83	=83	=83
1r	1r	.	1r	.	4r	.	4r	.
.	.	.	.	.	4g#	To	4e	To
.	.	.	.	.	4dd	mo	4b	mo
.	.	.	.	.	4b	rrow	4g#	rrow
=84	=84	=84	=84	=84	=84	=84	=84	=84
4AA	1c#	uh	1e	uh	4.b	never	4.g#	never
4AA	.	.	.	.	.	.	.	.
.	.	.	.	.	8cc#	.	8a	.
4AA	.	.	.	.	2cc#	knows	2a	knows
4AA	.	.	.	.	.	.	.	.
=85	=85	=85	=85	=85	=85	=85	=85	=85
4D	1d	uh	1a	uh	4cc#	ず	4a	ず
4D	.	.	.	.	8bL	っ	8f#L	っ
.	.	.	.	.	8aJ	と	8eJ	と
4D	.	.	.	.	4cc#	ず	4a	ず
4D	.	.	.	.	8bL	っ	8f#L	っ
.	.	.	.	.	8aJ	と	8eJ	と
=86	=86	=86	=86	=86	=86	=86	=86	=86
4C#	1e	uh	1g#	uh	4.b	never	4.g#	never
4C#	.	.	.	.	.	.	.	.
.	.	.	.	.	8cc#	.	8a	.
4C#	.	.	.	.	4cc#	give	4a	give
4C#	.	.	.	.	8r	.	8r	.
.	.	.	.	.	[8dd	up	[8b	up
=87	=87	=87	=87	=87	=87	=87	=87	=87
4F#	1f#	uh	1a	uh	4dd]	.	4b]	.
4A	.	.	.	.	4cc#	on	4a	on
4G#	.	.	.	.	4b	my	4g#	my
4A	.	.	.	.	4cc#	dream	4a	dream
=88	=88	=88	=88	=88	=88	=88	=88	=88
4BB	4r	.	4r	.	4r	.	8f#L	ま
.	.	.	.	.	.	.	8f#	っ
4BB	4d	tu	4f#	tu	4a	tu	8g#	か
.	.	.	.	.	.	.	[8aJ	な
4BB	8r	.	8r	.	8r	.	4a]	.
.	[8d	tu	[8f#	tu	[8a	tu	.	.
4BB	4d]	.	4f#]	.	4a]	.	4a	ゆ
=89	=89	=89	=89	=89	=89	=89	=89	=89
4C#	4r	.	4r	.	4r	.	4e	う
4C#	4c#	tu	4e	tu	4a	tu	8g#L	ひ
.	.	.	.	.	.	.	8aJ	に
4C#	8r	.	8r	.	8r	.	8r	.
.	[8c#	tu	[8e	tu	[8a	tu	8aL	ね
4C#	4c#]	.	4e]	.	4a]	.	8a	が
.	.	.	.	.	.	.	8aJ	い
=90	=90	=90	=90	=90	=90	=90	=90	=90
4E	2e	ha	2g#	ha	2b	ha	8eL	こ
.	.	.	.	.	.	.	8e	め
4E	.	.	.	.	.	.	8e	た
.	.	.	.	.	.	.	8eJ	り
4E#X	2e#X	ah	2g#	ah	2b	ah	[8dL	し
.	.	.	.	.	.	.	8d]	.
4E#	.	.	.	.	.	.	8c#	て
.	.	.	.	.	.	.	[8c#J	さ
=91	=91	=91	=91	=91	=91	=91	=91	=91
4F#	4f#	ah	4a	ah	4cc#	ah	4c#]	.
4F#	4e	ぼ	4a	ぼ	4cc#	ぼ	4e	ぼ
4E	4e	く	4b	く	4dd	く	4b	く
4E	4e	た	4e	た	4b	た	4g#	た
=92	=92	=92	=92	=92	=92	=92	=92	=92
4AA	4.c#	ち	4.e	ち	4.b	ち	4.g#	ち
4AA	.	.	.	.	.	.	.	.
.	8c#	は	8e	は	8cc#	は	8a	.
4AA	2c#	.	2e	.	2cc#	.	2a	は
4AA	.	.	.	.	.	.	.	.
=93	=93	=93	=93	=93	=93	=93	=93	=93
4D	4d	い	4e	い	4cc#	い	4a	い
4D	8dL	つ	8dL	つ	8bL	つ	8f#L	つ
.	8dJ	か	8c#J	か	8aJ	か	8eJ	か
4D	4d	い	4e	い	4cc#	い	4a	い
4D	8dL	つ	8dL	つ	8bL	つ	8f#L	つ
.	8dJ	か	8c#J	か	8aJ	か	8eJ	か
=94	=94	=94	=94	=94	=94	=94	=94	=94
4C#	4.c#	き	4.e	も	4.b	も	4.g#	も
4C#	.	.	.	.	.	.	.	.
.	8c#	っ	8e	っ	8cc#	っ	8a	っと
4C#	4c#	と	4e	と	4cc#	と	4a	.
4C#	4r	.	4r	.	4r	.	4r	.
=95	=95	=95	=95	=95	=95	=95	=95	=95
4F#	4A	お	4f#	や	4dd	や	4b	や
4F#	4A	と	4f#	さ	4cc#	さ	4a	さ
4E	4A	な	4e	し	4b	し	4g#	し
4F#	4A	に	4f#	く	4cc#	く	4a	く
=96	=96	=96	=96	=96	=96	=96	=96	=96
4BB	1B	ha	1d	ha	1f#	ha	4.cc#	な
4A	.	.	.	.	.	.	.	.
.	.	.	.	.	.	.	8a	って
4G#	.	.	.	.	.	.	4.a	.
4A	.	.	.	.	.	.	.	.
.	.	.	.	.	.	.	8f#	い
=97	=97	=97	=97	=97	=97	=97	=97	=97
4C#	1c#	ah	1e	ah	1g#	ah	[4e	くん
4A	.	.	.	.	.	.	8eL]	だ
.	.	.	.	.	.	.	[8aJ	.
4G#	.	.	.	.	.	.	8aL]	.
.	.	.	.	.	.	.	8a	だ
4A	.	.	.	.	.	.	8g#	か
.	.	.	.	.	.	.	[8f#J	ら
=98	=98	=98	=98	=98	=98	=98	=98	=98
4D	1d	ah	1f#	ah	1a	ah	2f#]	ー
4D	.	.	.	.	.	.	.	.
4D	.	.	.	.	.	.	4r	.
8DL	.	.	.	.	.	.	8f#L	い
[8EJ	.	.	.	.	.	.	[8cc#J	ま
=99	=99	=99	=99	=99	=99	=99	=99	=99
4E]	1e	ah	1a	ah	1b	ah	8cc#]	.
.	.	.	.	.	.	.	4a	か
4E	.	.	.	.	.	.	.	.
.	.	.	.	.	.	.	4f#	が
4E	.	.	.	.	.	.	.	.
.	.	.	.	.	.	.	4a	や
4E	.	.	.	.	.	.	.	.
.	.	.	.	.	.	.	[8a	こ
=100	=100	=100	=100	=100	=100	=100	=100	=100
4A	8AL	.	8c#L	tu	1r	.	1a_	う
.	8A	.	8c#	tu	.	.	.	.
4A	8A	.	8c#	tu	.	.	.	.
.	8AJ	.	8c#J	tu	.	.	.	.
4A	8r	.	8r	.	.	.	.	.
.	8B	.	8d	tu	.	.	.	.
4A	8r	.	8r	.	.	.	.	.
.	8c#	.	8e	tu	.	.	.	.
=101	=101	=101	=101	=101	=101	=101	=101	=101
4B	8r	.	8r	.	1r	.	1a]	.
.	8B	.	8d	tu	.	.	.	.
4B	8r	.	8r	.	.	.	.	.
.	8A	.	8c#	tu	.	.	.	.
4G#	8r	.	8r	.	.	.	.	.
.	[4G#	.	[4B	tu	.	.	.	.
4G#	.	.	.	.	.	.	.	.
.	8G#]	.	8B]	.	.	.	.	.
=102	=102	=102	=102	=102	=102	=102	=102	=102
4F#	8AL	.	8c#L	tu	1r	.	1r	.
.	8A	.	8c#	tu	.	.	.	.
4F#	8A	.	8c#	tu	.	.	.	.
.	8AJ	.	8c#J	tu	.	.	.	.
4F#	8r	.	8r	.	.	.	.	.
.	8f#	.	8a	tu	.	.	.	.
4F#	8r	.	8r	.	.	.	.	.
.	[8e-X	.	[8g#	tu	.	.	.	.
=103	=103	=103	=103	=103	=103	=103	=103	=103
4E-X	4.e-]	.	4.g#]	tu	1r	.	1r	.
4D#X	.	.	.	.	.	.	.	.
.	[4e-X	.	[4f#	tu	.	.	.	.
4E-	.	.	.	.	.	.	.	.
.	4e-]	.	4f#]	.	.	.	.	.
4E-	.	.	.	.	.	.	.	.
.	[8c#	.	[8e	tu	.	.	.	.
=104	=104	=104	=104	=104	=104	=104	=104	=104
4E	8c#L]	.	8eL]	.	2r	.	1r	.
.	8A	.	8c#	tu	.	.	.	.
4E	8BJ	.	8dJ	tu	.	.	.	.
.	4c#yy	.	4eyy	tu	.	.	.	.
4.E	.	.	.	.	2a	lu	.	.
.	8AL	.	8c#L	tu	.	.	.	.
.	8B	.	8d	tu	.	.	.	.
8E	8c#J	.	[8eJ	tu	.	.	.	.
=105	=105	=105	=105	=105	=105	=105	=105	=105
2E	2B	.	2e]	.	2g#	lu	2r	.
2r	2r	.	2r	.	2r	.	8aL	な
.	.	.	.	.	.	.	8g#	に
.	.	.	.	.	.	.	8f#	げ
.	.	.	.	.	.	.	8g#J	な
=106	=106	=106	=106	=106	=106	=106	=106	=106
1D	8r	.	4r	.	4.r	.	4.a	い
.	4d	fon	.	.	.	.	.	.
.	.	.	4f#	fon	.	.	.	.
.	8r	.	.	.	[8a	fon	8e	け
.	2r	.	4r	.	4a_	.	[2e	ど
.	.	.	4r	.	4a]	.	.	.
=107	=107	=107	=107	=107	=107	=107	=107	=107
1AA	8r	.	4r	.	4.r	.	2e]	.
.	4c#	fon	.	.	.	.	.	.
.	.	.	4e	.	.	.	.	.
.	8r	.	.	.	[8a	.	.	.
.	2r	.	4r	.	4a_	.	8aL	き
.	.	.	.	.	.	.	8g#	み
.	.	.	4r	.	4a]	.	8f#	が
.	.	.	.	.	.	.	8g#J	そ
=108	=108	=108	=108	=108	=108	=108	=108	=108
2E	8c#	tu	8e	tu	4e	ば	4a	ば
.	8r	.	8r	.	.	.	.	.
.	8c#	tu	8e	tu	8c#L	に	8eL	に
.	8r	.	8r	.	[8c#J	い	[8eJ	い
2D	8G#	tu	8e#X	tu	4c#]	る	4e]	る
.	8r	.	8r	.	.	.	.	.
.	8G#	tu	8e#	tu	8g#L	こ	8bL	こ
.	8r	.	8r	.	8f#J	と	[8aJ	と
=109	=109	=109	=109	=109	=109	=109	=109	=109
1C#	2A	fu	2f#	fu	1r	.	2.a]	.
.	2G#	.	2e	.	.	.	.	.
.	.	.	.	.	.	.	4a	そ
=110	=110	=110	=110	=110	=110	=110	=110	=110
1C#	1G#	fu	1c#	fu	1fn	fu	4g#	ん
.	.	.	.	.	.	.	4a	な
.	.	.	.	.	.	.	4b	まい
.	.	.	.	.	.	.	4g#	に
=111	=111	=111	=111	=111	=111	=111	=111	=111
1Fn	1B	.	1c#	.	1fn	.	4cc#	ち
.	.	.	.	.	.	.	4b	が
.	.	.	.	.	.	.	4a	た
.	.	.	.	.	.	.	4g#	い
=112	=112	=112	=112	=112	=112	=112	=112	=112
1D	1A	ha	1c#	ha	1f#	ha	4.g#	せ
.	.	.	.	.	.	.	8f#	つ
.	.	.	.	.	.	.	2f#	に
=113	=113	=113	=113	=113	=113	=113	=113	=113
8r	8r	.	8r	.	8r	.	8r	.
8EL	8AL	お	8BL	お	8eL	お	8aL	お
8E	8A	も	8B	も	8e	も	8a	も
8EJ	8AJ	え	8BJ	え	8eJ	え	8aJ	え
8EL	8AL	ちゃ	8BL	ちゃ	8eL	ちゃ	8aL	ちゃ
8E	8G#	う	8B	う	8e	う	8g#	う
8E	8F#	ん	8B	ん	8e	ん	8f#	ん
8EJ	8G#J	だ	8BJ	だ	8eJ	だ	8g#J	だ
=114	=114	=114	=114	=114	=114	=114	=114	=114
1r	4r	.	1r	.	1r	.	4r	.
.	4G#	To	.	.	.	.	4e	To
.	4d	mo	.	.	.	.	4b	mo
.	4B	rrow	.	.	.	.	4g#	rrow
=115	=115	=115	=115	=115	=115	=115	=115	=115
1r	4.B	never	1c#	uh	1e	uh	4.g#	never
.	8c#	.	.	.	.	.	8a	.
.	2c#	knows	.	.	.	.	2a	knows
=116	=116	=116	=116	=116	=116	=116	=116	=116
1r	4c#	ず	1d	uh	1a	uh	4a	ず
.	8BL	っ	.	.	.	.	8f#L	っ
.	8AJ	と	.	.	.	.	8eJ	と
.	4c#	ず	.	.	.	.	4a	ず
.	8BL	っ	.	.	.	.	8f#L	っ
.	8AJ	と	.	.	.	.	8eJ	と
=117	=117	=117	=117	=117	=117	=117	=117	=117
1r	4.B	never	1e	uh	1g#	uh	4.g#	never
.	8c#	.	.	.	.	.	8a	.
.	4c#	give	.	.	.	.	4a	give
.	8r	.	.	.	.	.	8r	.
.	[8d	up	.	.	.	.	[8b	up
=118	=118	=118	=118	=118	=118	=118	=118	=118
1r	4d]	.	1f#	uh	1a	uh	4b]	.
.	4c#	on	.	.	.	.	4a	on
.	4B	my	.	.	.	.	4g#	my
.	4c#	dream	.	.	.	.	4a	dream
=119	=119	=119	=119	=119	=119	=119	=119	=119
1r	4r	.	4r	.	4r	.	8f#L	た
.	.	.	.	.	.	.	8f#	か
.	4d	tu	4f#	tu	4a	tu	8g#	ま
.	.	.	.	.	.	.	[8aJ	る
.	8r	.	8r	.	8r	.	4a]	.
.	[8d	tu	[8f#	tu	[8a	tu	.	.
.	4d]	.	4f#]	.	4a]	.	4a	こ
=120	=120	=120	=120	=120	=120	=120	=120	=120
1r	4r	.	4r	.	4r	.	4e	ど
.	4c#	tu	4e	tu	4a	tu	8g#L	う
.	.	.	.	.	.	.	8aJ	で
.	8r	.	8r	.	8r	.	8r	.
.	[8c#	tu	[8e	tu	[8a	tu	8aL	ゆ
.	4c#]	.	4e]	.	4a]	.	8a	め
.	.	.	.	.	.	.	8aJ	を
=121	=121	=121	=121	=121	=121	=121	=121	=121
1r	2e	ha	2g#	ha	2b	ha	8eL	つ
.	.	.	.	.	.	.	8e	か
.	.	.	.	.	.	.	8e	ん
.	.	.	.	.	.	.	8eJ	で
.	2e#X	ah	2g#	ah	2b	ah	[8dL	い
.	.	.	.	.	.	.	8d]	.
.	.	.	.	.	.	.	8c#	こ
.	.	.	.	.	.	.	[8c#J	う
=122	=122	=122	=122	=122	=122	=122	=122	=122
4F#	4f#	ah	4a	ah	4cc#	ah	4c#]	.
4F#	4e	ぼ	4a	ぼ	4cc#	ぼ	4e	ぼ
4E	4e	く	4b	く	4dd	く	4b	く
4E	4e	た	4e	た	4b	た	4g#	た
=123	=123	=123	=123	=123	=123	=123	=123	=123
4AA	4.c#	ち	4.e	ち	4.b	ち	4.g#	ち
4AA	.	.	.	.	.	.	.	.
.	8c#	は	8e	は	8cc#	は	8a	.
4AA	2c#	.	2e	.	2cc#	.	2a	は
4AA	.	.	.	.	.	.	.	.
=124	=124	=124	=124	=124	=124	=124	=124	=124
4D	4d	い	4e	い	4cc#	い	4a	い
4D	8dL	つ	8dL	つ	8bL	つ	8f#L	つ
.	8dJ	か	8c#J	か	8aJ	か	8eJ	か
4D	4d	い	4e	い	4cc#	い	4a	い
4D	8dL	つ	8dL	つ	8bL	つ	8f#L	つ
.	8dJ	か	8c#J	か	8aJ	か	8eJ	か
=125	=125	=125	=125	=125	=125	=125	=125	=125
4C#	4.c#	き	4.e	き	4.b	き	4.g#	き
4C#	.	.	.	.	.	.	.	.
.	8c#	っ	8e	っ	8cc#	っ	8a	っ
4C#	4c#	と	4e	と	4cc#	と	4a	と
4C#	4r	.	4r	.	4r	.	4r	.
=126	=126	=126	=126	=126	=126	=126	=126	=126
4F#	4A	お	4f#	お	4dd	お	4b	お
4F#	4A	と	4f#	と	4cc#	と	4a	と
4E	4A	な	4e	な	4b	な	4g#	な
4F#	4A	に	4f#	に	4cc#	に	4a	に
=127	=127	=127	=127	=127	=127	=127	=127	=127
4BB	1B	ha	1d	ha	1f#	ha	4.cc#	な
4A	.	.	.	.	.	.	.	.
.	.	.	.	.	.	.	8a	っ
4G#	.	.	.	.	.	.	4.a	て
4A	.	.	.	.	.	.	.	.
.	.	.	.	.	.	.	8f#	い
=128	=128	=128	=128	=128	=128	=128	=128	=128
4C#	1c#	ah	1e	ah	1g#	ah	4e	くん
4A	.	.	.	.	.	.	8aL	だ
.	.	.	.	.	.	.	[8aJ	.
4G#	.	.	.	.	.	.	8aL]	.
.	.	.	.	.	.	.	8a	だ
4A	.	.	.	.	.	.	8g#	か
.	.	.	.	.	.	.	8g#J	ら
=129	=129	=129	=129	=129	=129	=129	=129	=129
4D	1d	ah	1f#	ah	1a	ah	2f#	.
4D	.	.	.	.	.	.	.	.
4D	.	.	.	.	.	.	4r	.
8DL	.	.	.	.	.	.	8f#L	い
[8EJ	.	.	.	.	.	.	[8cc#J	ま
=130	=130	=130	=130	=130	=130	=130	=130	=130
4E]	1e	ah	1a	ah	1b	ah	8cc#]	.
.	.	.	.	.	.	.	4a	は
4E	.	.	.	.	.	.	.	.
.	.	.	.	.	.	.	4f#	じ
4E	.	.	.	.	.	.	.	.
.	.	.	.	.	.	.	4a	け
4E	.	.	.	.	.	.	.	.
.	.	.	.	.	.	.	[8a	よ
=131	=131	=131	=131	=131	=131	=131	=131	=131
4AA	[2e	ah	[2a	ah	[2cc#	ah	2a_	う
4AA	.	.	.	.	.	.	.	.
4AA	4e]	.	4a]	.	4cc#]	.	4a]	.
8AAL	8r	.	8r	.	8r	.	8r	.
[8FF#J	[8e	ah	[8f#	ah	[8cc#	ah	[8a#X	＿
=132	=132	=132	=132	=132	=132	=132	=132	=132
2FF#]	2e]	.	2f#]	.	2cc#]	.	2a#]	.
2r	2r	.	2r	.	2r	.	8r	.
.	.	.	.	.	.	.	[8anL	一
.	.	.	.	.	.	.	8a]	.
.	.	.	.	.	.	.	8g#J	緒
=133	=133	=133	=133	=133	=133	=133	=133	=133
2BB	2B	ah	2d	ah	2f#	ah	2f#	に
4r	4r	.	4r	.	4r	.	4r	.
8F#L	8f#L	行	8f#L	行	8f#L	行	8f#L	行
[8c#J	[8cc#J	こ	[8cc#J	こ	[8cc#J	こ	[8cc#J	こ
=134	=134	=134	=134	=134	=134	=134	=134	=134
8c#L]	8cc#L]	.	8cc#L]	.	8cc#L]	.	8cc#L]	.
[8A	[8a	う	[8a	う	[8a	う	[8a	う
8A]	8a]	.	8a]	.	8a]	.	8a]	.
[8F#J	[8f#J	明	[8f#J	明	8f#J	明	[8f#J	明
8F#L]	8f#L]	.	8f#L]	.	8f#L	.	8f#L]	.
8A	8a	日	8a	日	8a	日	8a	日
8G#	8g#	.	8g#	.	8g#	.	8g#	.
[8AJ	[8aJ	も	[8aJ	も	[8aJ	も	[8aJ	も
=135	=135	=135	=135	=135	=135	=135	=135	=135
1A_	1a_	.	1a_	.	1a_	.	1a_	.
=136	=136	=136	=136	=136	=136	=136	=136	=136
1A]	1a]	.	1a]	.	1a]	.	1a]	.
=137	=137	=137	=137	=137	=137	=137	=137	=137
4AA	8eL	-ta	8aL	-ta	8ddL	-ta	1r	.
.	8e	la	8a	la	8dd	la	.	.
4AA	8e	la	8a	la	8dd	la	.	.
.	8eJ	la	8aJ	la	8cc#J	la	.	.
4AA	4r	.	4r	.	4r	.	.	.
4AA	8eL	ta	8g#L	ta	8bL	ta	.	.
.	[8eJ	la	8g#J	la	8bJ	la	.	.
=138	=138	=138	=138	=138	=138	=138	=138	=138
4D	8dL]	la	8f#L	la	8bL	la	1r	.
.	8dJ	la	8f#J	la	8aJ	la	.	.
4D	4r	.	4r	.	4r	.	.	.
4D	8dL	ta	8f#L	ta	8aL	ta	.	.
.	8dJ	la	8f#J	la	8g#J	la	.	.
4D	4d	la	4f#	la	4a	la	.	.
=139	=139	=139	=139	=139	=139	=139	=139	=139
4C#	[2c#	uh	2g#	uh	2e	uh	1r	.
4C#	.	.	.	.	.	.	.	.
4C#	4c#]	uh	[4e	uh	[4g#	uh	.	.
8C#L	8r	.	8eL]	.	8g#L]	.	.	.
[8DJ	[8d	uh	[8f#J	uh	[8aJ	uh	.	.
=140	=140	=140	=140	=140	=140	=140	=140	=140
8DL]	1d]	.	1f#]	.	2a]	.	1r	.
8D	.	.	.	.	.	.	.	.
8E	.	.	.	.	.	.	.	.
8EJ	.	.	.	.	.	.	.	.
8F#L	.	.	.	.	2r	.	.	.
8F#	.	.	.	.	.	.	.	.
8G#	.	.	.	.	.	.	.	.
8G#J	.	.	.	.	.	.	.	.
=141	=141	=141	=141	=141	=141	=141	=141	=141
4AA	8eL	-ta	8aL	-ta	8ddL	-ta	8c#L	-ta
.	8e	la	8a	la	8dd	la	8c#	la
4AA	8e	la	8a	la	8dd	la	8c#	la
.	8eJ	la	8aJ	la	8cc#J	la	8c#J	la
4AA	4r	.	4r	.	4r	.	4r	.
4AA	8eL	ta	8g#L	ta	8bL	ta	8BL	ta
.	8eJ	la	8g#J	la	8bJ	la	8BJ	la
=142	=142	=142	=142	=142	=142	=142	=142	=142
4D	8dL	la	8f#L	la	8bL	la	8BL	la
.	8dJ	la	8f#J	la	8aJ	la	8AJ	la
4D	4r	.	4r	.	4r	.	4r	.
4D	8dL	ta	8f#L	ta	8aL	ta	2r	.
.	8dJ	la	8f#J	la	8g#J	la	.	.
4D	4d	la	4f#	la	4a	la	.	.
=143	=143	=143	=143	=143	=143	=143	=143	=143
4C#	1c#	fu	2e	tu	2g#	tu	2e	tu
4C#	.	.	.	.	.	.	.	.
4C#	.	.	8BL	lu	8dL	lu	8g#L	tu
.	.	.	8c#	lu	8e	lu	8a	lu
4C#	.	.	8d	lu	8f#	lu	8b	lu
.	.	.	8eJ	lu	8g#J	lu	[8eeJ	lu
=144	=144	=144	=144	=144	=144	=144	=144	=144
8r	8r	.	8r	.	8r	.	1ee]	.
8E	8B	tu	8e	tu	8g#	tu	.	.
8r	8r	.	8r	.	8r	.	.	.
[8E	[8B	tu	[8e	tu	[8g#	tu	.	.
2E]	2B]	.	2e]	.	2g#]	.	.	.
=145	=145	=145	=145	=145	=145	=145	=145	=145
1AA	1c#;	ha	1e;	ha	1g#;	ha	1cc#;	.
==	==	==	==	==	==	==	==	==
*-	*-	*-	*-	*-	*-	*-	*-	*-
!!!YEM: ﾏﾐｶﾜｼﾀ
